X:15
T:Liam O'Brien's Jig
C:Terence "Cuz" Teahan
B:Terry "Cuz" Teahan "Sliabh Luachra on Parade" 1980
Z:Patrick Cavanagh
M:6/8
L:1/8
R:Jig
K:G
| BAB GBd | egd edB | dBB GBG | dBA GED | 
BAB GBd | egd edB | dBB GBG | AGE A3 :| 
| gag fed | BAB GED | gfe fdB | AFA B2d | 
faf dcd | edB ABd | gee dBB | AGE A3 :|| 

